!!!OTL-incipit: ZU KINDELSBERG, AUF DEM HOHEN SCHLOSS
!!!ARE: Europa, Mitteleuropa, Deutschland, Westfalen
!!!SCT: Z0044
!!!TXL: @@DE
!!!YEM: Copyright 1995, estate of Helmut Schaffrath.
**kern	**text
*ICvox	*
*M3/8	*
*k[]	*
*C:	*
!LO:TX:a:t=Aus Weſtphalen.	!
{8g	Ʒu
=1	=1
8cc	Kin-
8g	-dels-
8cc	-berg,
=2	=2
(8eeL	auf
8ccJ)	.
8ee	dem
=3	=3
4gg	ho-
8ff	-hen
=4	=4
8ee	Schloß,
8r}	.
{8ff	ſteht
=5	=5
(8.eeL	ei-
16ddJ)	.
8cc	-ne
=6	=6
8.ddL	al-
16ccJ	.
8dd	-te
=7	=7
4.ee	Lin-
=8	=8
4cc}	-de
{8g	Ʒu
=9	=9
8cc	Kin-
8g	-dels-
8cc	-berg,
=10	=10
(8eeL	auf
8ccJ)	.
8ee	dem
=11	=11
4gg	ho-
8ff	-hen
=12	=12
8ee	Schloß,
8r}	.
{8ff	ſteht
=13	=13
(8.eeL	ei-
16ddJ)	.
8cc	-ne
=14	=14
8.ddL	al-
16ccJ	.
8dd	-te
=15	=15
4.ee	Lin-
=16	=16
4cc}	-de
{8g	von
=17	=17
16aqq	.
8.gL	vie-
16eJ	.
16aqq	.
8g	-len
=18	=18
16aqq	.
8.gL	Ae-
16eJ	.
16aqq	.
8g	-ſten,
=19	=19
4a	kraus
8b/	und
=20	=20
4cc}	groß,
{8ee	ſie
=21	=21
(8ddL	ſauſt
8ccJ)	.
(16bL	am
16aJ)	.
=22	=22
8g	küh-
8f	-li-
8e	-gen
=23	=23
4.f	Win-
=24	=24
4e}	-de,
{8cc	ſie
=25	=25
4dd	ſauſt
8cc	am
=26	=26
8.dd	küh-
16cc	-li-
8dd	-gen
=27	=27
4.ee	Win-
=28	=28
4cc}	-de.
==	==
!!!AGN: Sagen - Lied, Romanze, Tod
!!!ONB: ESAC (Essen Associative Code) Database: ZUCCAL
!!!AMT: simple triple
!!!AIN: vox
!!!EED: Helmut Schaffrath
!!!EEV: 1.0
!!!GTL: I. Ernste Romanzen und Sagen.
!!!URL-scan: https://www.digitale-sammlungen.de/de/view/bsb11160571?page=91
!!!ENC: Anna Maria Matuszewska
!!!EEV: 2025/01/23
*-	*-
